icons-dark/actions/22/distribute-horizontal-left.svg

<svg xmlns="http://www.w3.org/2000/svg" viewBox="0 0 22 22">
  <defs id="defs3051">
    <style type="text/css" id="current-color-scheme">
      .ColorScheme-Text {
        color:#f2f2f2
      }
      </style>
  </defs>
 <path 
    style="fill:currentColor;fill-opacity:1;stroke:none" 
	d="m7 3l-3 2 3 2v-4m2 0v4l3-2-3-2m-6 3v3 6 4h1v-4h6v-7h-6v-2h-1m9 0v3 8 2h1v-2h6v-9h-6v-2h-1m-8 3h5v5h-5v-5m9 0h5v7h-5v-7"
	class="ColorScheme-Text"
    />
</svg>

<?xml version="1.0" encoding="UTF-8" standalone="no"?>
<!-- Created with Inkscape (http://www.inkscape.org/) -->

<svg
   xmlns:dc="http://purl.org/dc/elements/1.1/"
   xmlns:cc="http://creativecommons.org/ns#"
   xmlns:rdf="http://www.w3.org/1999/02/22-rdf-syntax-ns#"
   xmlns:svg="http://www.w3.org/2000/svg"
   xmlns="http://www.w3.org/2000/svg"
   xmlns:sodipodi="http://sodipodi.sourceforge.net/DTD/sodipodi-0.dtd"
   xmlns:inkscape="http://www.inkscape.org/namespaces/inkscape"
   width="22"
   height="22"
   id="svg3813"
   version="1.1"
   inkscape:version="0.48+devel r"
   sodipodi:docname="distribute-horizontal-left.svg">
  <defs
     id="defs3815" />
  <sodipodi:namedview
     id="base"
     pagecolor="#ffffff"
     bordercolor="#666666"
     borderopacity="1.0"
     inkscape:pageopacity="0.0"
     inkscape:pageshadow="2"
     inkscape:zoom="38.085077"
     inkscape:cx="7.5574356"
     inkscape:cy="12.678169"
     inkscape:document-units="px"
     inkscape:current-layer="layer1"
     showgrid="true"
     fit-margin-top="0"
     fit-margin-left="0"
     fit-margin-right="0"
     fit-margin-bottom="0"
     inkscape:window-width="1366"
     inkscape:window-height="668"
     inkscape:window-x="-2"
     inkscape:window-y="23"
     inkscape:window-maximized="1"
     inkscape:showpageshadow="false">
    <inkscape:grid
       type="xygrid"
       id="grid4109" />
    <sodipodi:guide
       position="2.0000072,19.999993"
       orientation="18,0"
       id="guide4115" />
    <sodipodi:guide
       position="2.0000072,1.9999929"
       orientation="0,18"
       id="guide4117" />
    <sodipodi:guide
       position="20.000007,1.9999929"
       orientation="-18,0"
       id="guide4119" />
    <sodipodi:guide
       position="20.000007,19.999993"
       orientation="0,-18"
       id="guide4121" />
    <sodipodi:guide
       position="3.0000072,18.999993"
       orientation="16,0"
       id="guide4123" />
    <sodipodi:guide
       position="3.0000072,2.9999929"
       orientation="0,16"
       id="guide4125" />
    <sodipodi:guide
       position="19.000007,2.9999929"
       orientation="-16,0"
       id="guide4127" />
    <sodipodi:guide
       position="19.000007,18.999993"
       orientation="0,-16"
       id="guide4129" />
  </sodipodi:namedview>
  <metadata
     id="metadata3818">
    <rdf:RDF>
      <cc:Work
         rdf:about="">
        <dc:format>image/svg+xml</dc:format>
        <dc:type
           rdf:resource="http://purl.org/dc/dcmitype/StillImage" />
        <dc:title />
      </cc:Work>
    </rdf:RDF>
  </metadata>
  <g
     inkscape:label="Capa 1"
     inkscape:groupmode="layer"
     id="layer1"
     transform="translate(-378.85714,-540.07647)">
    <path
       style="opacity:1;fill:#f2f2f2;fill-opacity:1;stroke:none"
       d="M 7 3 L 4 5 L 7 7 L 7 3 z M 9 3 L 9 7 L 12 5 L 9 3 z M 3 6 L 3 9 L 3 15 L 3 19 L 4 19 L 4 15 L 10 15 L 10 8 L 4 8 L 4 6 L 3 6 z M 12 6 L 12 9 L 12 17 L 12 19 L 13 19 L 13 17 L 19 17 L 19 8 L 13 8 L 13 6 L 12 6 z M 4 9 L 9 9 L 9 14 L 4 14 L 4 9 z M 13 9 L 18 9 L 18 16 L 13 16 L 13 9 z "
       transform="translate(378.85714,540.07647)"
       id="rect4109" />
  </g>
</svg>
